; generated by PrusaSlicer 2.5.1+win64 on 2023-05-11 at 05:02:36 UTC


;
;
; 

; external perimeters extrusion width = 6.75mm
; perimeters extrusion width = 6.75mm
; infill extrusion width = 6.75mm
; solid infill extrusion width = 6.75mm
; top infill extrusion width = 6.00mm
; first layer extrusion width = 0.70mm

M73 P0 R106
M73 Q0 S106
M201 X1000 Y1000 Z200 E5000 ; sets maximum accelerations, mm/sec^2
M203 X200 Y200 Z12 E120 ; sets maximum feedrates, mm / sec
M204 P1250 R1250 T1250 ; sets acceleration (P, T) and retract acceleration (R), mm/sec^2
M205 X8.00 Y8.00 Z0.40 E4.50 ; sets the jerk limits, mm/sec
M205 S0 T0 ; sets the minimum extruding and travel feed rate, mm/sec
M107
;TYPE:Custom
M862.3 P "MK3S" ; printer model check
M862.1 P6 ; nozzle diameter check
M115 U3.12.1 ; tell printer latest fw version
G90 ; use absolute coordinates
M83 ; extruder relative mode
M104 S215 ; set extruder temp
M140 S60 ; set bed temp
M190 S60 ; wait for bed temp
M109 S215 ; wait for extruder temp
G28 W ; home all without mesh bed level
G80 ; mesh bed leveling

G1 Z0.2 F720
G1 Y-3 F1000 ; go outside print area
G92 E0
G1 X60 E9 F1000 ; intro line
G1 X100 E12.5 F1000 ; intro line

G92 E0
M221 S95
G21 ; set units to millimeters
G90 ; use absolute coordinates
M83 ; use relative distances for extrusion
M900 K0.05 ; Filament gcode LA 1.5
M900 K30 ; Filament gcode LA 1.0
M107
;LAYER_CHANGE
;Z:0.35
;HEIGHT:0.35
;BEFORE_LAYER_CHANGE
G92 E0.0
;0.35


G1 E-.8 F2100
M73 P0 R105
G1 Z.4 F7800
;AFTER_LAYER_CHANGE
;0.35
G1 X44.514 Y52.748
G1 Z.35
G1 E.8 F1500
;TYPE:Skirt/Brim
;WIDTH:0.7
G1 F1800
G1 X45.668 Y51.774 E.13729
G1 X47.82 Y50.981 E.20854
G1 X49 Y50.875 E.10771
G1 X201 Y50.875 E13.8213
G1 X203.259 Y51.272 E.20854
G1 X205.247 Y52.415 E.20854
G1 X206.726 Y54.168 E.20854
G1 X207.519 Y56.32 E.20854
G1 X207.625 Y57.5 E.10771
G1 X207.625 Y152.5 E8.63831
G1 X207.228 Y154.759 E.20854
G1 X206.085 Y156.747 E.20854
G1 X204.332 Y158.226 E.20854
G1 X202.18 Y159.019 E.20854
G1 X201 Y159.125 E.10771
G1 X49 Y159.125 E13.8213
G1 X46.741 Y158.728 E.20854
M73 Q0 S105
G1 X44.753 Y157.585 E.20854
G1 X43.274 Y155.832 E.20854
G1 X42.481 Y153.68 E.20854
G1 X42.375 Y152.5 E.10771
G1 X42.375 Y57.5 E8.63831
G1 X42.772 Y55.241 E.20854
G1 X43.857 Y53.354 E.19796
;WIPE_START
G1 F6240
G1 X45.649 Y51.791 E-.76
;WIPE_END
G1 E-.04 F2100
G1 Z.75 F7800
G1 X199.4 Y150.9
G1 Z.35
G1 E.8 F1500
;TYPE:Perimeter
;WIDTH:0.7
G1 F1800
G1 X50.6 Y150.9 E13.53035
G1 X50.6 Y59.1 E8.34737
G1 X199.4 Y59.1 E13.53035
G1 X199.4 Y150 E8.26553
;WIPE_START
G1 F6240
G1 X197.023 Y150.015 E-.76
;WIPE_END
G1 E-.04 F2100
G1 Z.75 F7800
G1 X200.025 Y151.525
G1 Z.35
G1 E.8 F1500
G1 F1800
G1 X49.975 Y151.525 E13.644
G1 X49.975 Y58.475 E8.46101
G1 X200.025 Y58.475 E13.644
G1 X200.025 Y150.625 E8.37918
;WIPE_START
G1 F6240
G1 X197.648 Y150.639 E-.76
;WIPE_END
G1 E-.04 F2100
G1 Z.75 F7800
G1 X200.65 Y152.15
G1 Z.35
G1 E.8 F1500
;TYPE:External perimeter
G1 F1800
G1 X49.35 Y152.15 E13.75764
G1 X49.35 Y57.85 E8.57465
M73 P1 R105
M73 Q1 S105
G1 X200.65 Y57.85 E13.75764
M73 P1 R104
G1 X200.65 Y151.25 E8.49282
G1 X194.753 Y151.042 F7800
;WIPE_START
G1 F6240
G1 X198.273 Y151.264 E-.76
;WIPE_END
G1 E-.04 F2100
G1 Z.75 F7800
G1 X197.947 Y59.287
G1 Z.35
G1 E.8 F1500
;TYPE:Solid infill
;WIDTH:0.701268
G1 F1800
G1 X198.932 Y60.272 E.12688
G1 X198.932 Y61.157 E.08068
G1 X197.343 Y59.568 E.20475
G1 X196.457 Y59.568 E.08068
G1 X198.932 Y62.043 E.31885
G1 X198.932 Y62.928 E.08068
G1 X195.572 Y59.568 E.43295
G1 X194.686 Y59.568 E.08068
G1 X198.932 Y63.814 E.54706
G1 X198.932 Y64.699 E.08068
G1 X193.801 Y59.568 E.66116
G1 X192.915 Y59.568 E.08068
G1 X198.932 Y65.585 E.77526
G1 X198.932 Y66.471 E.08068
G1 X192.029 Y59.568 E.88937
G1 X191.144 Y59.568 E.08068
G1 X198.932 Y67.356 E1.00347
G1 X198.932 Y68.242 E.08068
M73 Q1 S104
G1 X190.258 Y59.568 E1.11757
G1 X189.373 Y59.568 E.08068
G1 X198.932 Y69.127 E1.23168
G1 X198.932 Y70.013 E.08068
G1 X188.487 Y59.568 E1.34578
G1 X187.602 Y59.568 E.08068
G1 X198.932 Y70.898 E1.45989
G1 X198.932 Y71.784 E.08068
G1 X186.716 Y59.568 E1.57399
G1 X185.831 Y59.568 E.08068
G1 X198.932 Y72.669 E1.68809
G1 X198.932 Y73.555 E.08068
G1 X184.945 Y59.568 E1.8022
G1 X184.06 Y59.568 E.08068
G1 X198.932 Y74.44 E1.9163
G1 X198.932 Y75.326 E.08068
G1 X183.174 Y59.568 E2.0304
G1 X182.289 Y59.568 E.08068
G1 X198.932 Y76.211 E2.14451
G1 X198.932 Y77.097 E.08068
G1 X181.403 Y59.568 E2.25861
G1 X180.518 Y59.568 E.08068
G1 X198.932 Y77.982 E2.37271
G1 X198.932 Y78.868 E.08068
G1 X179.632 Y59.568 E2.48682
G1 X178.747 Y59.568 E.08068
G1 X198.932 Y79.753 E2.60092
G1 X198.932 Y80.639 E.08068
G1 X177.861 Y59.568 E2.71502
G1 X176.976 Y59.568 E.08068
G1 X198.932 Y81.524 E2.82913
G1 X198.932 Y82.41 E.08068
G1 X176.09 Y59.568 E2.94323
G1 X175.205 Y59.568 E.08068
G1 X198.932 Y83.295 E3.05733
G1 X198.932 Y84.181 E.08068
G1 X174.319 Y59.568 E3.17144
G1 X173.434 Y59.568 E.08068
G1 X198.932 Y85.066 E3.28554
G1 X198.932 Y85.952 E.08068
G1 X172.548 Y59.568 E3.39964
G1 X171.663 Y59.568 E.08068
G1 X198.932 Y86.837 E3.51375
G1 X198.932 Y87.723 E.08068
G1 X170.777 Y59.568 E3.62785
G1 X169.891 Y59.568 E.08068
G1 X198.932 Y88.609 E3.74195
G1 X198.932 Y89.494 E.08068
G1 X169.006 Y59.568 E3.85606
G1 X168.12 Y59.568 E.08068
G1 X198.932 Y90.38 E3.97016
G1 X198.932 Y91.265 E.08068
G1 X167.235 Y59.568 E4.08426
G1 X166.349 Y59.568 E.08068
G1 X198.932 Y92.151 E4.19837
G1 X198.932 Y93.036 E.08068
G1 X165.464 Y59.568 E4.31247
G1 X164.578 Y59.568 E.08068
G1 X198.932 Y93.922 E4.42657
G1 X198.932 Y94.807 E.08068
G1 X163.693 Y59.568 E4.54068
G1 X162.807 Y59.568 E.08068
G1 X198.932 Y95.693 E4.65478
G1 X198.932 Y96.578 E.08068
G1 X161.922 Y59.568 E4.76888
G1 X161.036 Y59.568 E.08068
G1 X198.932 Y97.464 E4.88299
G1 X198.932 Y98.349 E.08068
G1 X160.151 Y59.568 E4.99709
G1 X159.265 Y59.568 E.08068
G1 X198.932 Y99.235 E5.11119
G1 X198.932 Y100.12 E.08068
G1 X158.38 Y59.568 E5.2253
G1 X157.494 Y59.568 E.08068
G1 X198.932 Y101.006 E5.3394
G1 X198.932 Y101.891 E.08068
M73 P1 R103
G1 X156.609 Y59.568 E5.4535
G1 X155.723 Y59.568 E.08068
M73 P2 R103
M73 Q2 S104
G1 X198.932 Y102.777 E5.56761
G1 X198.932 Y103.662 E.08068
G1 X154.838 Y59.568 E5.68171
G1 X153.952 Y59.568 E.08068
G1 X198.932 Y104.548 E5.79581
G1 X198.932 Y105.433 E.08068
G1 X153.067 Y59.568 E5.90992
G1 X152.181 Y59.568 E.08068
G1 X198.932 Y106.319 E6.02402
G1 X198.932 Y107.204 E.08068
G1 X151.296 Y59.568 E6.13812
G1 X150.41 Y59.568 E.08068
M73 Q2 S103
G1 X198.932 Y108.09 E6.25223
G1 X198.932 Y108.975 E.08068
G1 X149.525 Y59.568 E6.36633
G1 X148.639 Y59.568 E.08068
G1 X198.932 Y109.861 E6.48043
G1 X198.932 Y110.747 E.08068
G1 X147.753 Y59.568 E6.59454
G1 X146.868 Y59.568 E.08068
G1 X198.932 Y111.632 E6.70864
G1 X198.932 Y112.518 E.08068
G1 X145.982 Y59.568 E6.82274
G1 X145.097 Y59.568 E.08068
G1 X198.932 Y113.403 E6.93685
G1 X198.932 Y114.289 E.08068
G1 X144.211 Y59.568 E7.05095
G1 X143.326 Y59.568 E.08068
G1 X198.932 Y115.174 E7.16505
G1 X198.932 Y116.06 E.08068
G1 X142.44 Y59.568 E7.27916
G1 X141.555 Y59.568 E.08068
G1 X198.932 Y116.945 E7.39326
G1 X198.932 Y117.831 E.08068
G1 X140.669 Y59.568 E7.50736
G1 X139.784 Y59.568 E.08068
G1 X198.932 Y118.716 E7.62147
G1 X198.932 Y119.602 E.08068
G1 X138.898 Y59.568 E7.73557
G1 X138.013 Y59.568 E.08068
G1 X198.932 Y120.487 E7.84967
G1 X198.932 Y121.373 E.08068
G1 X137.127 Y59.568 E7.96378
G1 X136.242 Y59.568 E.08068
G1 X198.932 Y122.258 E8.07788
G1 X198.932 Y123.144 E.08068
M73 P2 R102
G1 X135.356 Y59.568 E8.19198
G1 X134.471 Y59.568 E.08068
G1 X198.932 Y124.029 E8.30609
G1 X198.932 Y124.915 E.08068
M73 P3 R102
M73 Q3 S103
G1 X133.585 Y59.568 E8.42019
G1 X132.7 Y59.568 E.08068
G1 X198.932 Y125.8 E8.53429
G1 X198.932 Y126.686 E.08068
M73 Q3 S102
G1 X131.814 Y59.568 E8.6484
G1 X130.929 Y59.568 E.08068
G1 X198.932 Y127.571 E8.7625
G1 X198.932 Y128.457 E.08068
G1 X130.043 Y59.568 E8.8766
G1 X129.158 Y59.568 E.08068
G1 X198.932 Y129.342 E8.99071
G1 X198.932 Y130.228 E.08068
G1 X128.272 Y59.568 E9.10481
G1 X127.387 Y59.568 E.08068
G1 X198.932 Y131.113 E9.21891
G1 X198.932 Y131.999 E.08068
G1 X126.501 Y59.568 E9.33302
G1 X125.615 Y59.568 E.08068
G1 X198.932 Y132.885 E9.44712
G1 X198.932 Y133.77 E.08068
G1 X124.73 Y59.568 E9.56123
G1 X123.844 Y59.568 E.08068
G1 X198.932 Y134.656 E9.67533
G1 X198.932 Y135.541 E.08068
G1 X122.959 Y59.568 E9.78943
G1 X122.073 Y59.568 E.08068
G1 X198.932 Y136.427 E9.90354
G1 X198.932 Y137.312 E.08068
G1 X121.188 Y59.568 E10.01764
G1 X120.302 Y59.568 E.08068
M73 P3 R101
G1 X198.932 Y138.198 E10.13174
G1 X198.932 Y139.083 E.08068
G1 X119.417 Y59.568 E10.24585
G1 X118.531 Y59.568 E.08068
G1 X198.932 Y139.969 E10.35995
G1 X198.932 Y140.854 E.08068
M73 P4 R101
M73 Q4 S102
G1 X117.646 Y59.568 E10.47405
G1 X116.76 Y59.568 E.08068
M73 Q4 S101
G1 X198.932 Y141.74 E10.58816
G1 X198.932 Y142.625 E.08068
G1 X115.875 Y59.568 E10.70226
G1 X114.989 Y59.568 E.08068
G1 X198.932 Y143.511 E10.81636
G1 X198.932 Y144.396 E.08068
G1 X114.104 Y59.568 E10.93047
G1 X113.218 Y59.568 E.08068
G1 X198.932 Y145.282 E11.04457
G1 X198.932 Y146.167 E.08068
G1 X112.333 Y59.568 E11.15867
G1 X111.447 Y59.568 E.08068
G1 X198.932 Y147.053 E11.27278
G1 X198.932 Y147.938 E.08068
G1 X110.562 Y59.568 E11.38688
G1 X109.676 Y59.568 E.08068
G1 X198.932 Y148.824 E11.50098
G1 X198.932 Y149.709 E.08068
G1 X108.791 Y59.568 E11.61509
G1 X107.905 Y59.568 E.08068
G1 X198.768 Y150.432 E11.70814
G1 X197.883 Y150.432 E.08068
M73 P4 R100
G1 X107.02 Y59.568 E11.70814
G1 X106.134 Y59.568 E.08068
G1 X196.997 Y150.432 E11.70814
G1 X196.112 Y150.432 E.08068
G1 X105.249 Y59.568 E11.70814
G1 X104.363 Y59.568 E.08068
M73 P5 R100
M73 Q5 S101
G1 X195.226 Y150.432 E11.70814
G1 X194.341 Y150.432 E.08068
M73 Q5 S100
G1 X103.477 Y59.568 E11.70814
G1 X102.592 Y59.568 E.08068
G1 X193.455 Y150.432 E11.70814
G1 X192.57 Y150.432 E.08068
G1 X101.706 Y59.568 E11.70814
G1 X100.821 Y59.568 E.08068
G1 X191.684 Y150.432 E11.70814
G1 X190.799 Y150.432 E.08068
G1 X99.935 Y59.568 E11.70814
G1 X99.05 Y59.568 E.08068
G1 X189.913 Y150.432 E11.70814
G1 X189.028 Y150.432 E.08068
G1 X98.164 Y59.568 E11.70814
G1 X97.279 Y59.568 E.08068
G1 X188.142 Y150.432 E11.70814
G1 X187.256 Y150.432 E.08068
G1 X96.393 Y59.568 E11.70814
G1 X95.508 Y59.568 E.08068
G1 X186.371 Y150.432 E11.70814
G1 X185.485 Y150.432 E.08068
M73 P5 R99
G1 X94.622 Y59.568 E11.70814
G1 X93.737 Y59.568 E.08068
G1 X184.6 Y150.432 E11.70814
G1 X183.714 Y150.432 E.08068
G1 X92.851 Y59.568 E11.70814
G1 X91.966 Y59.568 E.08068
G1 X182.829 Y150.432 E11.70814
G1 X181.943 Y150.432 E.08068
M73 P6 R99
M73 Q6 S99
G1 X91.08 Y59.568 E11.70814
G1 X90.195 Y59.568 E.08068
G1 X181.058 Y150.432 E11.70814
G1 X180.172 Y150.432 E.08068
G1 X89.309 Y59.568 E11.70814
G1 X88.424 Y59.568 E.08068
G1 X179.287 Y150.432 E11.70814
G1 X178.401 Y150.432 E.08068
G1 X87.538 Y59.568 E11.70814
G1 X86.653 Y59.568 E.08068
G1 X177.516 Y150.432 E11.70814
G1 X176.63 Y150.432 E.08068
G1 X85.767 Y59.568 E11.70814
G1 X84.882 Y59.568 E.08068
G1 X175.745 Y150.432 E11.70814
G1 X174.859 Y150.432 E.08068
G1 X83.996 Y59.568 E11.70814
G1 X83.111 Y59.568 E.08068
G1 X173.974 Y150.432 E11.70814
G1 X173.088 Y150.432 E.08068
M73 P6 R98
G1 X82.225 Y59.568 E11.70814
G1 X81.34 Y59.568 E.08068
G1 X172.203 Y150.432 E11.70814
G1 X171.317 Y150.432 E.08068
G1 X80.454 Y59.568 E11.70814
G1 X79.568 Y59.568 E.08068
M73 Q6 S98
G1 X170.432 Y150.432 E11.70814
G1 X169.546 Y150.432 E.08068
G1 X78.683 Y59.568 E11.70814
G1 X77.797 Y59.568 E.08068
M73 P7 R98
M73 Q7 S98
G1 X168.661 Y150.432 E11.70814
G1 X167.775 Y150.432 E.08068
G1 X76.912 Y59.568 E11.70814
G1 X76.026 Y59.568 E.08068
G1 X166.89 Y150.432 E11.70814
G1 X166.004 Y150.432 E.08068
G1 X75.141 Y59.568 E11.70814
G1 X74.255 Y59.568 E.08068
G1 X165.118 Y150.432 E11.70814
G1 X164.233 Y150.432 E.08068
G1 X73.37 Y59.568 E11.70814
G1 X72.484 Y59.568 E.08068
G1 X163.347 Y150.432 E11.70814
G1 X162.462 Y150.432 E.08068
G1 X71.599 Y59.568 E11.70814
G1 X70.713 Y59.568 E.08068
G1 X161.576 Y150.432 E11.70814
G1 X160.691 Y150.432 E.08068
M73 P7 R97
G1 X69.828 Y59.568 E11.70814
G1 X68.942 Y59.568 E.08068
G1 X159.805 Y150.432 E11.70814
G1 X158.92 Y150.432 E.08068
G1 X68.057 Y59.568 E11.70814
G1 X67.171 Y59.568 E.08068
M73 Q7 S97
G1 X158.034 Y150.432 E11.70814
G1 X157.149 Y150.432 E.08068
G1 X66.286 Y59.568 E11.70814
G1 X65.4 Y59.568 E.08068
M73 P8 R97
G1 X156.263 Y150.432 E11.70814
G1 X155.378 Y150.432 E.08068
M73 Q8 S97
G1 X64.515 Y59.568 E11.70814
G1 X63.629 Y59.568 E.08068
G1 X154.492 Y150.432 E11.70814
G1 X153.607 Y150.432 E.08068
G1 X62.744 Y59.568 E11.70814
G1 X61.858 Y59.568 E.08068
G1 X152.721 Y150.432 E11.70814
G1 X151.836 Y150.432 E.08068
G1 X60.973 Y59.568 E11.70814
G1 X60.087 Y59.568 E.08068
G1 X150.95 Y150.432 E11.70814
G1 X150.065 Y150.432 E.08068
G1 X59.202 Y59.568 E11.70814
G1 X58.316 Y59.568 E.08068
G1 X149.179 Y150.432 E11.70814
G1 X148.294 Y150.432 E.08068
M73 P8 R96
G1 X57.43 Y59.568 E11.70814
G1 X56.545 Y59.568 E.08068
G1 X147.408 Y150.432 E11.70814
G1 X146.523 Y150.432 E.08068
G1 X55.659 Y59.568 E11.70814
G1 X54.774 Y59.568 E.08068
M73 Q8 S96
G1 X145.637 Y150.432 E11.70814
G1 X144.752 Y150.432 E.08068
G1 X53.888 Y59.568 E11.70814
G1 X53.003 Y59.568 E.08068
G1 X143.866 Y150.432 E11.70814
G1 X142.98 Y150.432 E.08068
M73 P9 R96
M73 Q9 S96
G1 X52.117 Y59.568 E11.70814
G1 X51.232 Y59.568 E.08068
G1 X142.095 Y150.432 E11.70814
G1 X141.209 Y150.432 E.08068
G1 X51.068 Y60.291 E11.61509
G1 X51.068 Y61.176 E.08068
G1 X140.324 Y150.432 E11.50099
G1 X139.438 Y150.432 E.08068
G1 X51.068 Y62.062 E11.38689
G1 X51.068 Y62.947 E.08068
G1 X138.553 Y150.432 E11.27278
G1 X137.667 Y150.432 E.08068
G1 X51.068 Y63.833 E11.15868
G1 X51.068 Y64.718 E.08068
G1 X136.782 Y150.432 E11.04458
G1 X135.896 Y150.432 E.08068
M73 P9 R95
G1 X51.068 Y65.604 E10.93047
G1 X51.068 Y66.489 E.08068
G1 X135.011 Y150.432 E10.81637
G1 X134.125 Y150.432 E.08068
G1 X51.068 Y67.375 E10.70227
G1 X51.068 Y68.26 E.08068
M73 Q9 S95
G1 X133.24 Y150.432 E10.58816
G1 X132.354 Y150.432 E.08068
G1 X51.068 Y69.146 E10.47406
G1 X51.068 Y70.031 E.08068
G1 X131.469 Y150.432 E10.35996
G1 X130.583 Y150.432 E.08068
G1 X51.068 Y70.917 E10.24585
G1 X51.068 Y71.802 E.08068
G1 X129.698 Y150.432 E10.13175
G1 X128.812 Y150.432 E.08068
M73 P10 R95
M73 Q10 S95
G1 X51.068 Y72.688 E10.01765
G1 X51.068 Y73.573 E.08068
G1 X127.927 Y150.432 E9.90354
G1 X127.041 Y150.432 E.08068
G1 X51.068 Y74.459 E9.78944
G1 X51.068 Y75.344 E.08068
G1 X126.156 Y150.432 E9.67534
G1 X125.27 Y150.432 E.08068
G1 X51.068 Y76.23 E9.56123
G1 X51.068 Y77.115 E.08068
G1 X124.385 Y150.432 E9.44713
G1 X123.499 Y150.432 E.08068
G1 X51.068 Y78.001 E9.33303
G1 X51.068 Y78.886 E.08068
M73 P10 R94
G1 X122.614 Y150.432 E9.21892
G1 X121.728 Y150.432 E.08068
G1 X51.068 Y79.772 E9.10482
G1 X51.068 Y80.658 E.08068
G1 X120.842 Y150.432 E8.99072
G1 X119.957 Y150.432 E.08068
G1 X51.068 Y81.543 E8.87661
G1 X51.068 Y82.429 E.08068
G1 X119.071 Y150.432 E8.76251
G1 X118.186 Y150.432 E.08068
M73 Q10 S94
G1 X51.068 Y83.314 E8.64841
G1 X51.068 Y84.2 E.08068
G1 X117.3 Y150.432 E8.5343
G1 X116.415 Y150.432 E.08068
G1 X51.068 Y85.085 E8.4202
G1 X51.068 Y85.971 E.08068
G1 X115.529 Y150.432 E8.3061
G1 X114.644 Y150.432 E.08068
G1 X51.068 Y86.856 E8.19199
G1 X51.068 Y87.742 E.08068
G1 X113.758 Y150.432 E8.07789
G1 X112.873 Y150.432 E.08068
M73 P11 R94
G1 X51.068 Y88.627 E7.96379
G1 X51.068 Y89.513 E.08068
M73 Q11 S94
G1 X111.987 Y150.432 E7.84968
G1 X111.102 Y150.432 E.08068
G1 X51.068 Y90.398 E7.73558
G1 X51.068 Y91.284 E.08068
G1 X110.216 Y150.432 E7.62148
G1 X109.331 Y150.432 E.08068
G1 X51.068 Y92.169 E7.50737
G1 X51.068 Y93.055 E.08068
G1 X108.445 Y150.432 E7.39327
G1 X107.56 Y150.432 E.08068
G1 X51.068 Y93.94 E7.27917
G1 X51.068 Y94.826 E.08068
G1 X106.674 Y150.432 E7.16506
G1 X105.789 Y150.432 E.08068
G1 X51.068 Y95.711 E7.05096
G1 X51.068 Y96.597 E.08068
M73 P11 R93
G1 X104.903 Y150.432 E6.93686
G1 X104.018 Y150.432 E.08068
G1 X51.068 Y97.482 E6.82275
G1 X51.068 Y98.368 E.08068
G1 X103.132 Y150.432 E6.70865
G1 X102.247 Y150.432 E.08068
G1 X51.068 Y99.253 E6.59455
G1 X51.068 Y100.139 E.08068
G1 X101.361 Y150.432 E6.48044
G1 X100.476 Y150.432 E.08068
