; generated by PrusaSlicer 2.5.1+win64 on 2023-05-12 at 06:37:32 UTC


;
;
; 

; external perimeters extrusion width = 6.75mm
; perimeters extrusion width = 6.75mm
; infill extrusion width = 6.75mm
; solid infill extrusion width = 6.75mm
; top infill extrusion width = 6.00mm
; first layer extrusion width = 0.70mm

M73 P0 R28
M73 Q0 S28
M201 X1000 Y1000 Z200 E5000 ; sets maximum accelerations, mm/sec^2
M203 X200 Y200 Z12 E120 ; sets maximum feedrates, mm / sec
M204 P1250 R1250 T1250 ; sets acceleration (P, T) and retract acceleration (R), mm/sec^2
M205 X8.00 Y8.00 Z0.40 E4.50 ; sets the jerk limits, mm/sec
M205 S0 T0 ; sets the minimum extruding and travel feed rate, mm/sec
M107
;TYPE:Custom
M862.3 P "MK3S" ; printer model check
M862.1 P6 ; nozzle diameter check
M115 U3.12.1 ; tell printer latest fw version
G90 ; use absolute coordinates
M83 ; extruder relative mode
M104 S215 ; set extruder temp
M140 S60 ; set bed temp
M190 S60 ; wait for bed temp
M109 S215 ; wait for extruder temp
G28 W ; home all without mesh bed level
G80 ; mesh bed leveling

G1 Z0.2 F720
G1 Y-3 F1000 ; go outside print area
G92 E0
G1 X60 E9 F1000 ; intro line
G1 X100 E12.5 F1000 ; intro line

G92 E0
M221 S95
G21 ; set units to millimeters
G90 ; use absolute coordinates
M83 ; use relative distances for extrusion
M900 K0.05 ; Filament gcode LA 1.5
M900 K30 ; Filament gcode LA 1.0
M107
;LAYER_CHANGE
;Z:0.35
;HEIGHT:0.35
;BEFORE_LAYER_CHANGE
G92 E0.0
;0.35


G1 E-.8 F2100
G1 Z.4 F7800
;AFTER_LAYER_CHANGE
;0.35
G1 X87.798 Y73.689
G1 Z.35
G1 E.8 F1500
;TYPE:Skirt/Brim
;WIDTH:0.7
G1 F1800
G1 X89.825 Y71.428 E.27619
G1 X91.323 Y69.925 E.1929
G1 X94.621 Y67.033 E.39885
G1 X96.306 Y65.744 E.1929
G1 X98.813 Y64.029 E.27619
G1 X102.612 Y61.836 E.39885
G1 X104.516 Y60.901 E.19291
G1 X107.309 Y59.708 E.27619
G1 X111.463 Y58.298 E.39884
G1 X113.513 Y57.752 E.19291
G1 X116.485 Y57.127 E.27619
G1 X120.834 Y56.554 E.39885
G1 X122.951 Y56.419 E.1929
G1 X125.988 Y56.386 E.2762
G1 X130.365 Y56.672 E.39885
G1 X133.372 Y57.102 E.27619
G1 X135.454 Y57.512 E.1929
G1 X139.691 Y58.648 E.39885
G1 X141.698 Y59.333 E.19291
G1 X144.517 Y60.464 E.2762
G1 X148.451 Y62.404 E.39885
G1 X151.065 Y63.952 E.27619
G1 X152.831 Y65.128 E.1929
G1 X156.311 Y67.798 E.39885
G1 X157.903 Y69.199 E.1929
G1 X160.075 Y71.323 E.2762
G1 X162.967 Y74.621 E.39885
G1 X164.256 Y76.306 E.1929
G1 X165.971 Y78.813 E.27619
G1 X168.164 Y82.612 E.39885
G1 X169.099 Y84.516 E.19291
G1 X170.292 Y87.309 E.27619
G1 X171.702 Y91.463 E.39885
G1 X172.456 Y94.405 E.2762
G1 X172.88 Y96.525 E.19655
G1 X173.442 Y100.797 E.39185
G1 X173.61 Y103.83 E.27617
G1 X173.614 Y105.988 E.19628
G1 X173.328 Y110.365 E.39884
G1 X173.048 Y112.468 E.19291
G1 X172.488 Y115.454 E.27619
G1 X171.352 Y119.691 E.39885
G1 X170.356 Y122.526 E.27327
G1 X169.52 Y124.554 E.19947
G1 X167.596 Y128.451 E.3952
G1 X166.515 Y130.314 E.19582
G1 X164.875 Y132.827 E.27283
G1 X162.202 Y136.311 E.3993
G1 X160.175 Y138.572 E.27619
G1 X158.677 Y140.075 E.19291
G1 X155.379 Y142.967 E.39885
G1 X153.668 Y144.274 E.19582
G1 X151.187 Y145.971 E.27328
G1 X147.388 Y148.164 E.39885
G1 X145.484 Y149.099 E.19291
G1 X142.691 Y150.292 E.27619
G1 X138.537 Y151.702 E.39884
G1 X135.595 Y152.456 E.2762
G1 X133.475 Y152.88 E.19655
G1 X129.166 Y153.446 E.39521
G1 X126.133 Y153.611 E.27619
G1 X123.971 Y153.614 E.19656
G1 X119.635 Y153.328 E.39519
G1 X117.532 Y153.048 E.19291
G1 X114.578 Y152.494 E.27328
G1 X112.485 Y151.986 E.19582
G1 X110.309 Y151.352 E.20604
G1 X108.302 Y150.667 E.1929
G1 X105.483 Y149.536 E.2762
G1 X101.549 Y147.596 E.39884
G1 X99.713 Y146.532 E.1929
G1 X97.2 Y144.893 E.27282
G1 X95.425 Y143.596 E.19993
G1 X93.689 Y142.202 E.2024
G1 X91.428 Y140.175 E.2762
G1 X89.925 Y138.677 E.1929
G1 X87.033 Y135.379 E.39885
G1 X85.744 Y133.694 E.1929
G1 X84.047 Y131.214 E.27328
G1 X81.836 Y127.388 E.40176
G1 X80.523 Y124.65 E.2762
G1 X79.708 Y122.691 E.19291
G1 X78.298 Y118.537 E.39885
G1 X77.544 Y115.595 E.27619
G1 X77.127 Y113.515 E.1929
G1 X76.558 Y109.203 E.39549
G1 X76.389 Y106.138 E.2791
G1 X76.386 Y103.971 E.197
G1 X76.672 Y99.635 E.39519
G1 X76.952 Y97.532 E.19291
G1 X77.512 Y94.546 E.27619
G1 X78.648 Y90.309 E.39885
G1 X79.655 Y87.444 E.27619
G1 X80.464 Y85.483 E.1929
G1 X82.404 Y81.549 E.39885
G1 X83.468 Y79.713 E.19291
G1 X85.11 Y77.196 E.27328
M73 Q1 S28
G1 X86.38 Y75.457 E.19582
M73 P1 R28
G1 X87.235 Y74.391 E.12421
;WIPE_START
G1 F6240
G1 X88.799 Y72.602 E-.76
;WIPE_END
G1 E-.04 F2100
G1 Z.75 F7800
G1 X155.882 Y78.967
G1 Z.35
G1 E.8 F1500
;TYPE:Perimeter
;WIDTH:0.7
G1 F1800
G1 X156.507 Y79.713 E.08845
G1 X157.58 Y81.111 E.16029
G1 X158.591 Y82.555 E.16028
G1 X159.538 Y84.041 E.16024
G1 X160.434 Y85.596 E.16317
G1 X161.237 Y87.139 E.1582
G1 X161.611 Y87.918 E.07857
G1 X162.325 Y89.54 E.16106
G1 X162.963 Y91.182 E.16028
G1 X163.53 Y92.852 E.16028
G1 X164.026 Y94.552 E.16107
G1 X164.24 Y95.389 E.07856
G1 X164.624 Y97.118 E.16107
G1 X164.931 Y98.863 E.16107
G1 X165.053 Y99.718 E.07858
G1 X165.243 Y101.448 E.15819
G1 X165.361 Y103.238 E.16318
G1 X165.4 Y105 E.16023
G1 X165.361 Y106.762 E.16028
G1 X165.246 Y108.53 E.16107
G1 X165.161 Y109.39 E.07856
G1 X164.93 Y111.146 E.16107
G1 X164.624 Y112.882 E.16028
G1 X164.24 Y114.611 E.16107
G1 X164.026 Y115.448 E.07856
G1 X163.53 Y117.148 E.16107
G1 X162.963 Y118.818 E.16028
G1 X162.325 Y120.46 E.16027
G1 X161.611 Y122.082 E.16107
G1 X161.238 Y122.861 E.07856
G1 X160.42 Y124.432 E.16107
G1 X159.538 Y125.958 E.16028
G1 X158.591 Y127.445 E.16028
G1 X157.58 Y128.889 E.16027
G1 X156.502 Y130.294 E.16106
G1 X155.954 Y130.962 E.07856
G1 X154.786 Y132.294 E.16106
G1 X153.567 Y133.567 E.16028
G1 X152.288 Y134.791 E.16101
G1 X151.62 Y135.389 E.08146
G1 X150.287 Y136.507 E.1582
G1 X148.889 Y137.58 E.16029
G1 X147.445 Y138.591 E.16028
G1 X145.959 Y139.538 E.16024
G1 X144.404 Y140.434 E.16317
G1 X142.861 Y141.237 E.15819
G1 X142.082 Y141.611 E.07858
G1 X140.46 Y142.325 E.16106
G1 X138.818 Y142.963 E.16027
G1 X137.148 Y143.53 E.16028
G1 X135.448 Y144.026 E.16107
G1 X134.611 Y144.24 E.07856
G1 X132.882 Y144.624 E.16107
G1 X131.146 Y144.93 E.16028
G1 X129.398 Y145.16 E.16028
G1 X127.642 Y145.313 E.16027
G1 X125.873 Y145.391 E.16107
G1 X125.009 Y145.4 E.07855
G1 X123.238 Y145.361 E.16103
G1 X121.448 Y145.243 E.16318
G1 X119.718 Y145.053 E.15819
G1 X118.863 Y144.931 E.07858
G1 X117.118 Y144.624 E.16107
G1 X115.389 Y144.24 E.16107
G1 X114.552 Y144.026 E.07856
G1 X112.852 Y143.53 E.16107
G1 X111.182 Y142.963 E.16028
G1 X109.54 Y142.325 E.16027
G1 X107.919 Y141.611 E.16101
G1 X107.111 Y141.223 E.08146
G1 X105.568 Y140.42 E.15821
G1 X104.042 Y139.538 E.16028
G1 X102.555 Y138.591 E.16028
G1 X101.111 Y137.58 E.16028
G1 X99.706 Y136.502 E.16107
G1 X99.038 Y135.954 E.07856
G1 X97.706 Y134.786 E.16106
G1 X96.427 Y133.561 E.16107
G1 X95.822 Y132.943 E.07856
G1 X94.626 Y131.637 E.16107
G1 X93.493 Y130.287 E.16028
G1 X92.42 Y128.889 E.16027
G1 X91.404 Y127.438 E.16107
G1 X90.932 Y126.714 E.07858
G1 X90.029 Y125.227 E.15819
G1 X89.165 Y123.654 E.16317
G1 X88.385 Y122.074 E.16024
G1 X87.675 Y120.46 E.16027
G1 X87.037 Y118.818 E.16024
G1 X86.461 Y117.118 E.16318
G1 X85.974 Y115.448 E.15819
G1 X85.76 Y114.611 E.07857
G1 X85.376 Y112.882 E.16107
G1 X85.07 Y111.146 E.16028
G1 X84.84 Y109.398 E.16028
G1 X84.687 Y107.642 E.16027
G1 X84.609 Y105.873 E.16107
G1 X84.6 Y105.001 E.0793
G1 X84.61 Y104.096 E.08225
G1 X84.687 Y102.358 E.15821
G1 X84.84 Y100.602 E.16028
G1 X85.07 Y98.854 E.16028
G1 X85.376 Y97.118 E.16027
G1 X85.76 Y95.389 E.16107
G1 X85.974 Y94.552 E.07856
G1 X86.47 Y92.852 E.16107
G1 X87.037 Y91.182 E.16028
G1 X87.675 Y89.54 E.16027
G1 X88.385 Y87.927 E.16023
G1 X89.18 Y86.318 E.16318
G1 X90.017 Y84.793 E.15819
G1 X90.457 Y84.049 E.07857
G1 X91.409 Y82.555 E.16107
G1 X92.42 Y81.111 E.16028
G1 X93.493 Y79.713 E.16027
G1 X94.626 Y78.363 E.16028
G1 X95.822 Y77.057 E.16107
G1 X96.427 Y76.439 E.07856
G1 X97.706 Y75.214 E.16107
G1 X99.038 Y74.046 E.16107
G1 X99.706 Y73.498 E.07856
G1 X101.111 Y72.42 E.16107
G1 X102.555 Y71.409 E.16028
G1 X104.041 Y70.462 E.16024
G1 X105.596 Y69.566 E.16317
G1 X107.139 Y68.763 E.1582
G1 X107.918 Y68.389 E.07857
G1 X109.54 Y67.675 E.16107
G1 X111.182 Y67.037 E.16024
G1 X112.882 Y66.461 E.16318
G1 X114.552 Y65.974 E.15819
G1 X115.389 Y65.76 E.07857
G1 X117.118 Y65.376 E.16107
G1 X118.854 Y65.07 E.16028
G1 X120.61 Y64.839 E.16107
G1 X121.47 Y64.754 E.07856
G1 X123.237 Y64.639 E.16102
G1 X125.031 Y64.601 E.16318
G1 X126.771 Y64.639 E.1582
G1 X127.634 Y64.686 E.07857
G1 X129.398 Y64.84 E.16106
G1 X131.146 Y65.07 E.16028
G1 X132.882 Y65.376 E.16028
G1 X134.611 Y65.76 E.16107
G1 X135.448 Y65.974 E.07856
G1 X137.148 Y66.47 E.16107
G1 X138.818 Y67.037 E.16028
G1 X140.46 Y67.675 E.16027
G1 X142.082 Y68.389 E.16107
G1 X142.861 Y68.762 E.07856
G1 X144.432 Y69.58 E.16107
G1 X145.958 Y70.462 E.16027
G1 X147.445 Y71.409 E.16028
G1 X148.889 Y72.42 E.16028
G1 X150.294 Y73.498 E.16107
G1 X150.962 Y74.046 E.07856
G1 X152.294 Y75.214 E.16106
G1 X153.567 Y76.433 E.16028
G1 X154.791 Y77.712 E.16101
G1 X155.3 Y78.281 E.06938
;WIPE_START
G1 F6240
G1 X156.507 Y79.713 E-.59872
G1 X156.814 Y80.113 E-.16128
;WIPE_END
G1 E-.04 F2100
G1 Z.75 F7800
G1 X156.361 Y78.566
G1 Z.35
G1 E.8 F1500
G1 F1800
G1 X156.995 Y79.321 E.08969
G1 X158.084 Y80.742 E.16276
G1 X159.111 Y82.208 E.16276
G1 X160.073 Y83.717 E.16274
G1 X160.983 Y85.295 E.16566
G1 X161.797 Y86.86 E.16035
G1 X162.179 Y87.657 E.08043
G1 X162.902 Y89.3 E.16323
G1 X163.551 Y90.969 E.16276
G1 X164.126 Y92.664 E.16276
G1 X164.628 Y94.387 E.16324
G1 X164.848 Y95.244 E.08042
G1 X165.237 Y96.996 E.16324
G1 X165.548 Y98.764 E.16324
G1 X165.673 Y99.64 E.08043
G1 X165.866 Y101.393 E.16034
G1 X165.986 Y103.211 E.16566
G1 X166.025 Y105 E.16273
G1 X165.986 Y106.789 E.16276
G1 X165.868 Y108.581 E.16324
G1 X165.782 Y109.461 E.08042
G1 X165.547 Y111.241 E.16324
G1 X165.237 Y113.004 E.16276
G1 X164.848 Y114.756 E.16324
G1 X164.628 Y115.613 E.08042
G1 X164.126 Y117.336 E.16324
G1 X163.551 Y119.031 E.16276
G1 X162.902 Y120.7 E.16275
G1 X162.179 Y122.343 E.16324
G1 X161.797 Y123.14 E.08042
G1 X160.968 Y124.732 E.16324
G1 X160.073 Y126.283 E.16276
G1 X159.111 Y127.792 E.16276
G1 X158.084 Y129.258 E.16275
G1 X156.991 Y130.683 E.16323
G1 X156.43 Y131.366 E.08042
G1 X155.247 Y132.716 E.16323
G1 X154.009 Y134.009 E.16276
G1 X152.712 Y135.25 E.1632
G1 X152.03 Y135.861 E.08333
G1 X150.679 Y136.995 E.16035
G1 X149.258 Y138.084 E.16276
G1 X147.792 Y139.111 E.16276
G1 X146.283 Y140.073 E.16274
G1 X144.705 Y140.983 E.16566
G1 X143.14 Y141.796 E.16035
G1 X142.343 Y142.179 E.08044
G1 X140.7 Y142.902 E.16323
G1 X139.031 Y143.551 E.16275
G1 X137.336 Y144.126 E.16276
G1 X135.613 Y144.628 E.16324
M73 P1 R27
G1 X134.756 Y144.848 E.08041
G1 X133.004 Y145.237 E.16324
G1 X131.241 Y145.547 E.16276
G1 X129.466 Y145.781 E.16276
G1 X127.683 Y145.937 E.16275
G1 X125.89 Y146.015 E.16324
G1 X125.005 Y146.025 E.08041
G1 X123.211 Y145.986 E.16322
G1 X121.393 Y145.866 E.16566
G1 X119.64 Y145.673 E.16034
G1 X118.764 Y145.548 E.08043
G1 X116.996 Y145.237 E.16324
G1 X115.244 Y144.848 E.16324
G1 X114.387 Y144.628 E.08042
G1 X112.664 Y144.126 E.16324
G1 X110.969 Y143.551 E.16276
G1 X109.3 Y142.902 E.16275
G1 X107.658 Y142.179 E.1632
G1 X106.832 Y141.782 E.08333
G1 X105.268 Y140.968 E.16036
G1 X103.717 Y140.073 E.16275
G1 X102.208 Y139.111 E.16276
G1 X100.742 Y138.084 E.16276
G1 X99.317 Y136.991 E.16324
G1 X98.634 Y136.43 E.08041
G1 X97.284 Y135.247 E.16323
G1 X95.987 Y134.005 E.16324
G1 X95.369 Y133.373 E.08042
G1 X94.156 Y132.05 E.16324
G1 X93.005 Y130.678 E.16276
G1 X91.916 Y129.258 E.16275
G1 X90.886 Y127.788 E.16324
G1 X90.403 Y127.047 E.08043
G1 X89.488 Y125.54 E.16034
G1 X88.61 Y123.943 E.16566
G1 X87.819 Y122.338 E.16274
G1 X87.098 Y120.7 E.16275
G1 X86.449 Y119.032 E.16273
G1 X85.865 Y117.306 E.16566
G1 X85.372 Y115.613 E.16034
G1 X85.152 Y114.756 E.08043
G1 X84.763 Y113.004 E.16324
G1 X84.453 Y111.241 E.16276
G1 X84.219 Y109.466 E.16276
G1 X84.063 Y107.683 E.16275
G1 X83.985 Y105.89 E.16324
G1 X83.975 Y105 E.08087
G1 X83.986 Y104.079 E.0838
G1 X84.063 Y102.317 E.16036
G1 X84.219 Y100.534 E.16276
G1 X84.453 Y98.759 E.16276
G1 X84.763 Y96.996 E.16275
G1 X85.152 Y95.244 E.16324
G1 X85.372 Y94.387 E.08041
G1 X85.874 Y92.664 E.16324
G1 X86.449 Y90.969 E.16276
G1 X87.098 Y89.3 E.16275
G1 X87.819 Y87.662 E.16273
G1 X88.625 Y86.029 E.16567
G1 X89.474 Y84.483 E.16035
G1 X89.924 Y83.722 E.08043
G1 X90.889 Y82.208 E.16324
G1 X91.916 Y80.742 E.16276
G1 X93.005 Y79.322 E.16275
G1 X94.156 Y77.95 E.16276
G1 X95.369 Y76.627 E.16323
G1 X95.987 Y75.995 E.08042
G1 X97.284 Y74.753 E.16324
G1 X98.634 Y73.57 E.16323
G1 X99.317 Y73.009 E.08042
G1 X100.742 Y71.916 E.16324
G1 X102.208 Y70.889 E.16276
G1 X103.717 Y69.927 E.16273
G1 X105.295 Y69.017 E.16566
G1 X106.86 Y68.203 E.16035
G1 X107.657 Y67.821 E.08043
G1 X109.3 Y67.098 E.16323
G1 X110.968 Y66.449 E.16273
G1 X112.694 Y65.865 E.16566
G1 X114.387 Y65.372 E.16034
G1 X115.244 Y65.152 E.08043
M73 Q2 S28
G1 X116.996 Y64.763 E.16324
G1 X118.759 Y64.453 E.16276
G1 X120.539 Y64.218 E.16324
M73 P2 R27
G1 X121.419 Y64.132 E.08042
G1 X123.21 Y64.014 E.16321
G1 X125.032 Y63.975 E.16566
G1 X126.795 Y64.014 E.16035
G1 X127.678 Y64.062 E.08042
G1 X129.466 Y64.219 E.16323
G1 X131.241 Y64.453 E.16276
G1 X133.004 Y64.763 E.16276
G1 X134.756 Y65.152 E.16324
G1 X135.613 Y65.372 E.08042
G1 X137.336 Y65.874 E.16324
G1 X139.031 Y66.449 E.16276
G1 X140.7 Y67.098 E.16275
G1 X142.343 Y67.821 E.16324
G1 X143.14 Y68.203 E.08042
G1 X144.733 Y69.032 E.16324
G1 X146.283 Y69.927 E.16275
G1 X147.792 Y70.889 E.16276
G1 X149.258 Y71.916 E.16276
G1 X150.683 Y73.009 E.16324
G1 X151.366 Y73.57 E.08042
M73 Q2 S27
G1 X152.716 Y74.753 E.16323
G1 X154.009 Y75.991 E.16276
G1 X155.25 Y77.288 E.1632
G1 X155.779 Y77.879 E.07216
;WIPE_START
G1 F6240
G1 X156.995 Y79.321 E-.60306
G1 X157.293 Y79.711 E-.15694
;WIPE_END
G1 E-.04 F2100
G1 Z.75 F7800
G1 X156.84 Y78.164
G1 Z.35
G1 E.8 F1500
;TYPE:External perimeter
G1 F1800
G1 X157.482 Y78.93 E.09092
G1 X158.588 Y80.372 E.16524
G1 X159.631 Y81.861 E.16524
G1 X160.607 Y83.393 E.16523
G1 X161.531 Y84.995 E.16814
G1 X162.356 Y86.58 E.1625
G1 X162.747 Y87.396 E.08228
G1 X163.48 Y89.061 E.1654
G1 X164.138 Y90.755 E.16523
G1 X164.722 Y92.476 E.16524
G1 X165.231 Y94.222 E.16541
G1 X165.456 Y95.099 E.08227
G1 X165.85 Y96.875 E.16541
G1 X166.166 Y98.666 E.16541
G1 X166.293 Y99.562 E.08228
G1 X166.488 Y101.338 E.1625
G1 X166.61 Y103.183 E.16815
G1 X166.65 Y105 E.16523
G1 X166.61 Y106.817 E.16524
G1 X166.491 Y108.632 E.16541
G1 X166.403 Y109.532 E.08228
G1 X166.165 Y111.336 E.16541
G1 X165.85 Y113.125 E.16524
G1 X165.456 Y114.901 E.16541
G1 X165.231 Y115.778 E.08227
G1 X164.722 Y117.524 E.16541
G1 X164.138 Y119.245 E.16524
G1 X163.48 Y120.939 E.16523
G1 X162.747 Y122.604 E.16541
G1 X162.356 Y123.42 E.08228
G1 X161.516 Y125.033 E.16541
G1 X160.607 Y126.607 E.16524
G1 X159.631 Y128.139 E.16524
G1 X158.588 Y129.628 E.16523
G1 X157.481 Y131.071 E.1654
G1 X156.907 Y131.771 E.08228
G1 X155.708 Y133.138 E.1654
G1 X154.451 Y134.451 E.16524
G1 X153.137 Y135.709 E.16539
G1 X152.439 Y136.334 E.08519
G1 X151.07 Y137.482 E.1625
G1 X149.628 Y138.588 E.16524
G1 X148.139 Y139.631 E.16524
G1 X146.607 Y140.607 E.16523
G1 X145.005 Y141.531 E.16814
G1 X143.42 Y142.356 E.1625
G1 X142.604 Y142.747 E.08229
G1 X140.939 Y143.48 E.1654
G1 X139.245 Y144.138 E.16523
G1 X137.524 Y144.722 E.16524
G1 X135.778 Y145.231 E.16541
G1 X134.901 Y145.456 E.08227
G1 X133.125 Y145.85 E.16541
G1 X131.336 Y146.165 E.16524
G1 X129.534 Y146.402 E.16524
G1 X127.724 Y146.561 E.16523
G1 X125.907 Y146.64 E.16541
G1 X125.002 Y146.65 E.08227
G1 X123.183 Y146.61 E.1654
G1 X121.338 Y146.488 E.16815
G1 X119.562 Y146.293 E.1625
G1 X118.666 Y146.166 E.08229
G1 X116.875 Y145.85 E.1654
G1 X115.099 Y145.456 E.16541
G1 X114.222 Y145.231 E.08228
G1 X112.476 Y144.722 E.16541
G1 X110.755 Y144.138 E.16524
G1 X109.061 Y143.48 E.16523
G1 X107.396 Y142.747 E.16539
G1 X106.552 Y142.341 E.08519
G1 X104.967 Y141.516 E.16251
G1 X103.393 Y140.607 E.16523
G1 X101.861 Y139.631 E.16524
G1 X100.372 Y138.588 E.16524
G1 X98.929 Y137.481 E.16541
G1 X98.229 Y136.907 E.08227
